X:58
%%etbk:tnset id:220,pos:1,rep:3x,ant:
%%etbk:wsite http://www.thesession.org/tunes/display/733
%%etbk:pldat 2015-12-28T17:39,2015-12-24T16:30,2014-12-26T16:19,2014-12-16T17:15,2014-12-14T15:30,2014-11-24T17:02,2014-10-03T16:16,2014-05-19T18:48,2014-05-02T16:55,2014-04-30T17:00,2014-04-26T16:55,2014-03-20T18:08,2014-03-14T18:46,2014-02-15T15:48,2014-02-12T18:16,2014-02-08T15:43,2014-01-03T16:43,2013-12-29T12:09,2013-12-28T14:16,2013-12-22T17:19,2013-12-17T17:03,2013-12-07T17:34,2013-12-04T18:44,2013-11-26T16:32,2013-11-24T15:53,2013-11-16T15:10,2013-11-06T17:27,2013-11-03T15:29,2013-10-26T17:29,2013-10-20T15:36,2013-10-09T17:18,2013-10-02T18:29,2013-10-01T18:23,2013-05-15T17:05,2013-05-12T19:19,2013-05-07T19:11
T: Killarney Boys Of Pleasure
Z: Piano Box Version by Martin Fleischmann
H: Created 2013-02-19 /  Last Modified 2013-02-19
M: 4/4
L: 1/8
R: reel
K: Emin
|:!2!E2 F/E/!1!D !2!EE !3!F!4!A|!5!BB!4!A!3!F !1!D!2!E!3!F!4!A|!2!B3 !3!d !4!e2 !3!e!3!d|!2!BB!1!A!3!F !1!DEFD|
!2!E3 D EE FA|BBAF DEFA|!2!B!1!A !2!B!3!d !4!e!5!f !4!e!3!d|!2!BB!1!A!2!F FEED:|
|:!2!B!5!ee!4!d Beed|!2!BB!1!A!2!F !1!D!5!d!1!d!2!e|!3!f2 fe fgfe|!1!d!2!B!1!A!3!F !1!DEF!4!A
!2!B!5!eed Beed|BBAF Ddde|f2 fe fgfe|dBAF E3 z:|


